X: 17963
T: Hudson's Hornpipe
R: three-two
M: 3/2
K: Dmajor
"D" D2 EF A2 F2 FG E2|D2 EF A2 c2 BA G2|D2 EF A2 F2 FG E2|F2 D2 CDEF GA B2:|
[K:C]"Am" A2 c2 c2 de d2 B2|"G" G2 B2 B2 cd cBAG|"F" F2 A2 d2 F2 A2 e2|F2 A2 f2"G" e2 d2 cB:|
"C" c2 e2 e2 fg f2 d2|"G" B2 d2 d2 ef edcB|"C" c2 e2 e2 fg f2 d2|"G" B2 d2 d2 ef edcB|
"Am" A2 c2 c2 de d2 B2|"G" G2 B2 B2 cd cBAG|"F" F2 A2 d2 F2 A2 e2|F2 A2 f2"G" e2 d2 cB||
"Am""^Coda" [E2A2]4||

